Papirus/16x16/apps/chromium-dev.svg

<svg xmlns="http://www.w3.org/2000/svg" width="16" height="16" version="1">
 <path style="fill:#6199f6" d="m 2.2078338,9.9877167 c 1.4012,2.4293003 3.8695,3.8350003 6.4627,3.9832003 C 11.435234,12.444917 11.771,12.5352 11.055,9.9006 10.752,10.3952 10.332,10.8232 9.7929,11.1352 8.9365,11.6302 8.1436,11.1102 7.2608,10.8782 6.366,10.6432 5.3837,10.6872 4.8825,9.8181 L 1.3128,3.6292 C 0.25725018,5.2344688 -0.18879552,7.1790657 0.07353872,9.0941631 0.21049041,10.09394 1.6707353,9.0563947 2.2078738,9.9876167 Z"/>
 <path style="fill:#a2c2fa" d="m 8.1074219,4 c 0.5792,0.015661 1.1603187,0.5693994 1.6992187,0.8808594 0.9216804,0.53264 0.8352024,1.584975 1.0390624,2.546875 0.17761,0.83803 1.065153,1.6825281 0.601563,2.4863281 L 7.0942722,14.15473 c 0.034492,0.0022 0.068998,0.0041 0.1035156,0.0059 0.3181752,0.01432 0.6356838,0.01385 0.9511719,-0.0098 0.059323,-0.0065 0.1185716,-0.01366 0.1777344,-0.02148 0.2529934,-0.02468 0.5050315,-0.06275 0.7539063,-0.111328 0.1223521,-0.02384 0.2441301,-0.05054 0.3652343,-0.08008 0.2103489,-0.05141 0.4175229,-0.11327 0.6230473,-0.181641 0.102901,-0.03243 0.205135,-0.06695 0.306641,-0.103516 0.27927,-0.105704 0.553706,-0.22633 0.820312,-0.363281 0.108845,-0.05934 0.216296,-0.12121 0.322266,-0.185547 0.177318,-0.101847 0.351695,-0.208343 0.521484,-0.324218 0.105253,-0.07109 0.208798,-0.144681 0.310547,-0.220704 0.201482,-0.152228 0.396107,-0.315681 0.583984,-0.488281 0.05202,-0.04491 0.103454,-0.09049 0.154297,-0.136719 0.23811,-0.230497 0.46245,-0.478595 0.673828,-0.742187 0.04305,-0.05543 0.08537,-0.111425 0.126953,-0.167969 0.192702,-0.253628 0.375557,-0.519016 0.541016,-0.800781 0.01577,-0.02595 0.0314,-0.05199 0.04687,-0.07813 0.495979,-0.8676472 1.274983,-0.0133 1.423329,-1.0072497 0.05841,-0.3913331 0.09073,-0.7864662 0.09763,-1.1806831 0.0033,-0.1873937 -0.01342,-0.3721923 -0.02149,-0.5585937 C 15.882789,6.2003469 15.5203,5.0387761 14.916016,4 Z"/>
 <path style="fill:#396bd7" d="m8 0a8 8 0 0 0 -0.3984375 0.013671875c-1.3967107 0.069523137-2.7712496 0.54380334-3.9628906 1.28125a8 8 0 0 0 -2.75 3.0566406l3.6914062 5.7265625c-0.3008147-0.4952059-0.149286-1.2845618-0.1796875-1.90625-0.0520376-1.0632458 0.8783731-1.5611673 1.5761719-2.2539062 0.6079375-0.6035327 0.8369145-1.8054014 1.7636719-1.8515626l7.2050776-0.0175781a8 8 0 0 0 -6.945312 -4.0488281z"/>
 <rect fill="#fff" width="8" height="8" x="-12" y="-12" rx="4" ry="4" transform="matrix(0,-1,-1,0,0,0)"/>
 <rect fill="#4688f4" width="6" height="6" x="-11" y="-11" rx="3" ry="3" transform="matrix(0,-1,-1,0,0,0)"/>
 <path style="fill:#315072" d="m 0.072,9 a 8,8 0 0 0 5.5644532,6.642578 8,8 0 0 0 0.7207031,0.183594 8.2352942,8.2352942 0 0 0 0.265625,0.04687 8,8 0 0 0 0.4941406,0.07422 8.2352942,8.2352942 0 0 0 0.4375,0.03125 A 8,8 0 0 0 7.9997344,16 a 8,8 0 0 0 0.00195,0 8.2352942,8.2352942 0 0 0 0.00391,0 8.2352942,8.2352942 0 0 0 0.7011718,-0.03711 8,8 0 0 0 0.4140626,-0.05078 8.2352942,8.2352942 0 0 0 0.3320312,-0.05078 8,8 0 0 0 0.568359,-0.125 8.2352942,8.2352942 0 0 0 0.173828,-0.04492 A 8,8 0 0 0 15.929422,9 Z"/>
 <path style="fill:#ffffff" d="m 6.2497342,11.470588 q 0,0.760504 -0.3894228,1.14706 Q 5.4748215,13 4.7825143,13 H 3.9997344 v -3 h 0.8653845 q 0.4208916,0 0.7316433,0.168068 0.3146853,0.168067 0.4838286,0.495798 0.1691434,0.327731 0.1691434,0.806722 z m -0.373689,0.01261 q 0,-0.60084 -0.279283,-0.878152 -0.2753497,-0.281512 -0.7827798,-0.281512 h -0.460227 v 2.352941 h 0.3815561 q 1.1407337,0 1.1407337,-1.193277 z"/>
 <path style="fill:#ffffff" d="m 8.0290324,11 c -0.1722464,0 -0.324074,0.04086 -0.4550784,0.122396 -0.1285782,0.08153 -0.2293033,0.197878 -0.3020833,0.348957 -0.070354,0.151079 -0.1054687,0.331938 -0.1054687,0.54297 0,0.215827 0.038904,0.396685 0.1165364,0.542969 0.080059,0.146282 0.190672,0.25704 0.3313803,0.33138 C 7.7550271,12.96301 7.9184018,13 8.1052041,13 c 0.1334303,0 0.2486631,-0.01097 0.3457034,-0.03255 0.09704,-0.01919 0.1954553,-0.04993 0.2949216,-0.0931 v -0.277344 c -0.1018924,0.04316 -0.2011366,0.07693 -0.2981771,0.100911 -0.094614,0.02158 -0.2043985,0.03255 -0.328125,0.03255 -0.1940804,0 -0.3452567,-0.05656 -0.4544271,-0.16927 C 7.5583547,12.44609 7.5026324,12.212366 7.4977824,11.994141 h 0.00195 v 0.0058 h 1.3333345 v 0 -0.129558 c 0,-0.17506 -0.032804,-0.327535 -0.098307,-0.457032 C 8.6716852,11.281517 8.5793692,11.180015 8.4580688,11.108072 8.3367685,11.036131 8.1940011,11 8.0290324,11 Z m -0.00391,0.259114 c 0.1625424,0 0.2815644,0.05118 0.3567707,0.154297 0.050985,0.06828 0.078819,0.156321 0.096354,0.253255 H 7.5368444 c 0.026767,-0.102683 0.064104,-0.194248 0.1243489,-0.260416 0.089762,-0.09832 0.211094,-0.147136 0.3639325,-0.147136 z"/>
 <path style="fill:#ffffff" d="M 10.732346,13 9.9997344,11 h 0.3392376 l 0.411418,1.179105 q 0.02887,0.08209 0.06135,0.182835 0.03248,0.100747 0.05774,0.19403 0.02527,0.09328 0.03609,0.152985 H 10.92 q 0.01082,-0.0597 0.0397,-0.152985 0.02887,-0.09702 0.06135,-0.19403 0.03248,-0.100746 0.06135,-0.182835 L 11.493834,11 h 0.339239 l -0.73622,2 z"/>
</svg>

<svg xmlns="http://www.w3.org/2000/svg" width="16" height="16" version="1">
 <path style="fill:#6199f6" d="M 1.078,12.017 C 2.479,14.446 4.947,15.852 7.541,16 10.306,14.474 11.772,12.535 11.056,9.9 10.753,10.395 10.333,10.823 9.794,11.135 8.938,11.63 8.145,11.11 7.262,10.878 6.367,10.643 5.385,10.687 4.884,9.818 L 1.314,3.629 C -0.293,6.072 -0.487,9.302 1.079,12.017 Z"/>
 <path style="fill:#a2c2fa" d="M 8.107,4 C 8.687,4.016 9.268,4.569 9.807,4.881 10.728,5.413 10.642,6.466 10.846,7.428 11.023,8.266 11.911,9.11 11.447,9.914 L 7.557,15.979 C 7.591,15.981 7.626,15.983 7.66,15.984 7.978,15.999 8.296,15.998 8.611,15.975 12.219,15.579 14.03,13.504 14.939,11.969 15.631,10.759 15.974,9.352 15.998,7.957 16.001,7.77 15.985,7.585 15.977,7.398 15.883,6.2 15.52,5.039 14.916,4 Z"/>
 <path style="fill:#396bd7" d="M 8,0 A 8,8 0 0 0 7.602,0.014 C 6.205,0.084 4.831,0.558 3.639,1.295 A 8,8 0 0 0 0.889,4.352 L 4.58,10.079 C 4.279,9.584 4.431,8.794 4.4,8.173 4.348,7.11 5.278,6.612 5.976,5.919 6.584,5.315 6.813,4.114 7.74,4.067 L 14.945,4.049 A 8,8 0 0 0 8,0 Z"/>
 <circle style="fill:#ffffff" cx="8" cy="8" r="4"/>
 <circle style="fill:#4688f4" cx="8" cy="8" r="3"/>
 <path style="fill:#315072" d="M 0.072266 9 A 8 8 0 0 0 8 16 A 8 8 0 0 0 15.928 9 L 0.072266 9 z"/>
 <path style="fill:#ffffff" d="M 10.732,13 9.9997,11 H 10.339 L 10.906,12.709 H 10.92 L 11.494,11 H 11.833 L 11.097,13 Z M 8.029,11 C 7.8568,11 7.705,11.041 7.574,11.122 7.4454,11.204 7.3447,11.32 7.2719,11.471 7.2015,11.622 7.1664,11.803 7.1664,12.014 7.1664,12.23 7.2053,12.411 7.2829,12.557 7.363,12.704 7.4736,12.814 7.6143,12.889 7.755,12.963 7.9184,13 8.1052,13 8.2386,13 8.3539,12.989 8.4509,12.967 8.5479,12.948 8.6464,12.918 8.7458,12.874 V 12.597 C 8.6439,12.64 8.5447,12.674 8.4477,12.698 8.353,12.719 8.2433,12.73 8.1195,12.73 7.9254,12.73 7.7743,12.674 7.6651,12.561 7.5584,12.446 7.5049,12.218 7.5,12 H 8.8331 V 11.87 C 8.8331,11.695 8.8003,11.543 8.7348,11.413 8.6717,11.282 8.5794,11.18 8.4581,11.108 8.3368,11.036 8.194,11 8.029,11 Z M 8.0251,11.259 C 8.1877,11.259 8.3067,11.31 8.3819,11.413 8.4329,11.482 8.4607,11.57 8.4782,11.667 H 7.5368 C 7.5636,11.564 7.6009,11.472 7.6612,11.406 7.751,11.308 7.8723,11.259 8.0251,11.259 Z M 6.2497,11.471 Q 6.2497,12.231 5.8603,12.618 5.4748,13 4.7825,13 H 3.9997 V 10 H 4.8651 Q 5.286,10 5.5968,10.168 5.9114,10.336 6.0806,10.664 6.2497,10.992 6.2497,11.471 Z M 5.876,11.483 Q 5.876,10.882 5.5968,10.605 5.3214,10.324 4.814,10.324 H 4.3538 V 12.676 H 4.7353 Q 5.876,12.676 5.876,11.483 Z"/>
</svg>
